X: 109101
T: The HIGHLANDERS FAREWELL TO IRELAND
Q:"Strathspey."
R: Strathspey.
%R:strathspey, march
Z: 2017 by John Chambers <jc:trillian.mit.edu>
B: Kerr's Merrie Melodies v.1 p.9 s.1 #1
M: C
L: 1/16
K: Am
|:\
vA,6uB,2 A,A,A,2 A,4 | vG3vE (DB,3) G,G,G,2 uG,3uG |\
vE3vD (EG3) A3BA3G | (EG3) uD3uB, A,A,A,2 A,4 ::\
va6 b2 aaa2 a4 | vg3vaug3ue dcBA G3ug |
e3d (eg3) a3ba3g | (eg3) ud3uB AAA2 A4 ::\
ve3vA AAA2 e3A e4 | d3G GGG2 B3G (Bd3) |\
e3A AAA2 e3d (ea3) |
g3ed3B AAA2 A4 ::\
a3ba3e a3ba3e | g3a g3e dcBA G3g |\
e3d (eg3) a3ba3g | (eg3) ud3uB AAA2 A4 :|

%%sep 1 1 500
%%sep 1 1 500

